svgs/duotone/chart-line.svg

<svg xmlns="http://www.w3.org/2000/svg" viewBox="0 0 512 512"><!--! Font Awesome Pro 6.4.0 by @fontawesome - https://fontawesome.com License - https://fontawesome.com/license (Commercial License) Copyright 2023 Fonticons, Inc. --><defs><style>.fa-secondary{opacity:.4}</style></defs><path class="fa-primary" d="M470.6 105.4c12.5 12.5 12.5 32.8 0 45.3l-128 128c-12.5 12.5-32.8 12.5-45.3 0L240 221.3l-89.4 89.4c-12.5 12.5-32.8 12.5-45.3 0s-12.5-32.8 0-45.3l112-112c12.5-12.5 32.8-12.5 45.3 0L320 210.7 425.4 105.4c12.5-12.5 32.8-12.5 45.3 0z"/><path class="fa-secondary" d="M32 32c17.7 0 32 14.3 32 32V400c0 8.8 7.2 16 16 16H480c17.7 0 32 14.3 32 32s-14.3 32-32 32H80c-44.2 0-80-35.8-80-80V64C0 46.3 14.3 32 32 32z"/></svg>

<svg xmlns="http://www.w3.org/2000/svg" viewBox="0 0 512 512"><!--! Font Awesome Pro 6.3.0 by @fontawesome - https://fontawesome.com License - https://fontawesome.com/license (Commercial License) Copyright 2023 Fonticons, Inc. --><defs><style>.fa-secondary{opacity:.4}</style></defs><path class="fa-primary" d="M470.6 105.4C483.1 117.9 483.1 138.1 470.6 150.6L342.6 278.6C330.1 291.1 309.9 291.1 297.4 278.6L239.1 221.3L150.6 310.6C138.1 323.1 117.9 323.1 105.4 310.6C92.88 298.1 92.88 277.9 105.4 265.4L217.4 153.4C229.9 140.9 250.1 140.9 262.6 153.4L320 210.7L425.4 105.4C437.9 92.88 458.1 92.88 470.6 105.4z"/><path class="fa-secondary" d="M32 32C49.67 32 64 46.33 64 64V400C64 408.8 71.16 416 80 416H480C497.7 416 512 430.3 512 448C512 465.7 497.7 480 480 480H80C35.82 480 0 444.2 0 400V64C0 46.33 14.33 32 32 32z"/></svg>
